assets/bale.svg

<svg width="53" height="52" viewBox="0 0 53 52" fill="none" xmlns="http://www.w3.org/2000/svg">
<path d="M0.75 24C0.75 12.6863 0.75 7.02944 4.26472 3.51472C7.77944 0 13.4363 0 24.75 0H28.75C40.0637 0 45.7206 0 49.2353 3.51472C52.75 7.02944 52.75 12.6863 52.75 24V28C52.75 39.3137 52.75 44.9706 49.2353 48.4853C45.7206 52 40.0637 52 28.75 52H24.75C13.4363 52 7.77944 52 4.26472 48.4853C0.75 44.9706 0.75 39.3137 0.75 28V24Z" fill="#2FD686"/>
<path d="M26.6389 44.5526C25.1521 44.4787 23.6801 44.2222 22.256 43.7889C22.0912 43.727 21.9247 43.6695 21.7568 43.6165C16.998 42.0506 12.9627 38.2768 11.0209 33.576C10.2246 31.6578 9.77203 29.6145 9.68372 27.5395C9.67184 27.3032 9.6659 24.1371 9.66441 18.9282C9.66441 9.96921 9.65698 10.6036 9.76841 10.256C10.0061 9.49972 10.6643 8.98863 11.4829 8.92177C12.1084 8.87126 12.523 9.05251 13.8646 9.9603C14.6995 10.5249 15.5271 11.1192 16.5329 11.8754C17.0009 12.2275 17.0574 12.2632 17.0916 12.2424L17.6116 11.9007C18.4733 11.3346 19.2607 10.8948 20.1373 10.4966C21.4273 9.9133 22.7825 9.48681 24.1741 9.22635C25.1736 9.03469 26.1887 8.93522 27.2064 8.9292C28.9002 8.90543 30.2923 9.0644 31.8895 9.46406C37.1638 10.7834 41.6032 14.5319 43.8169 19.5373C44.5479 21.1909 45.0723 23.1476 45.2209 24.7701C45.2699 25.3138 45.2789 25.4089 45.2997 25.6778C45.3115 25.8338 45.3219 26.281 45.3219 26.6718C45.3219 27.8351 45.2254 29.0044 45.0709 29.7383C45.045 29.8665 45.0222 29.9953 45.0025 30.1246C44.9193 30.6862 44.6846 31.591 44.4097 32.4052C44.1051 33.316 43.8644 33.8895 43.3935 34.8314C42.4156 36.7558 41.095 38.4858 39.4964 39.9364C38.8427 40.5247 38.2647 40.9838 37.6244 41.4266C36.6631 42.0877 35.6825 42.633 34.595 43.1114C33.7035 43.5051 32.4555 43.9122 31.4734 44.1306C30.8958 44.2618 30.3116 44.362 29.7233 44.4307C28.7004 44.5584 27.6686 44.5991 26.6389 44.5526ZM25.7326 35.757C26.1694 35.6679 26.7399 35.4465 27.0163 35.2563C27.2302 35.1093 27.6521 34.6977 30.0828 32.2656C30.9497 31.3907 31.8234 30.5225 32.7036 29.6611C32.7289 29.6611 35.2101 27.1799 35.2101 27.1517C35.2101 27.122 37.6467 24.7032 37.6779 24.7032C37.6927 24.7032 37.7715 24.6334 37.8532 24.5457C38.547 23.8103 38.8664 23.1239 38.917 22.2473C38.9556 21.604 38.8278 20.8968 38.5946 20.4704C38.2614 19.8353 37.755 19.3078 37.1341 18.949C36.7166 18.7068 36.3734 18.6028 35.8148 18.5478C35.3601 18.5018 34.7926 18.5478 34.4063 18.6592C34.0452 18.7632 33.5104 19.0663 33.139 19.3739C33.0766 19.4259 31.2387 21.2533 29.0562 23.4344L25.0878 27.4013L23.4639 25.7818C22.5724 24.8904 21.7999 24.1267 21.7479 24.0851C21.1769 23.6377 20.4839 23.3736 19.7599 23.3274C19.1597 23.3081 18.4079 23.4611 17.9414 23.6988C17.5786 23.9101 17.2487 24.1734 16.9623 24.4803C16.8019 24.6586 16.5359 25.0107 16.5315 25.0523C16.527 25.0969 16.5181 25.1177 16.4349 25.2901C16.2328 25.7133 16.1196 26.1734 16.1021 26.6421C16.0857 26.9823 16.0872 27.0358 16.1303 27.3716C16.1972 27.896 16.4869 28.5319 16.888 29.0282C16.9623 29.1218 18.3292 30.502 19.9249 32.0947C22.1639 34.3307 22.8666 35.0216 23.0063 35.1241C23.4921 35.4807 24.021 35.7006 24.6421 35.8016C24.9125 35.8462 25.3849 35.8254 25.7326 35.757Z" stroke="white" stroke-width="2.25"/>
</svg>

<svg xmlns="http://www.w3.org/2000/svg" width="53" height="52" fill="none" xmlns:v="https://vecta.io/nano"><path d="M.75 24c0-11.314 0-16.971 3.515-20.485S13.436 0 24.75 0h4c11.314 0 16.971 0 20.485 3.515S52.75 12.686 52.75 24v4c0 11.314 0 16.971-3.515 20.485S40.064 52 28.75 52h-4c-11.314 0-16.971 0-20.485-3.515S.75 39.314.75 28v-4z" fill="#2fd686"/><path d="M26.639 44.553c-1.487-.074-2.959-.33-4.383-.764l-.499-.172c-4.759-1.566-8.794-5.34-10.736-10.041a17.71 17.71 0 0 1-1.337-6.036c-.012-.236-.018-3.402-.019-8.611l.104-8.672c.238-.756.896-1.267 1.714-1.334.625-.051 1.04.131 2.382 1.039a64 64 0 0 1 2.668 1.915c.468.352.524.388.559.367l.52-.342a18.1 18.1 0 0 1 2.526-1.404 17.7 17.7 0 0 1 4.037-1.27c1-.192 2.015-.291 3.032-.297 1.694-.024 3.086.135 4.683.535 5.274 1.319 9.714 5.068 11.927 10.073.731 1.654 1.255 3.61 1.404 5.233l.079.908c.012.156.022.603.022.994 0 1.163-.096 2.333-.251 3.066a8.15 8.15 0 0 0-.068.386c-.083.562-.318 1.466-.593 2.281-.305.911-.545 1.484-1.016 2.426-.978 1.924-2.299 3.654-3.897 5.105-.654.588-1.232 1.047-1.872 1.49-.961.661-1.942 1.206-3.029 1.685-.892.394-2.139.801-3.122 1.019-.578.131-1.162.231-1.75.3a18.25 18.25 0 0 1-3.084.122zm-.906-8.796c.437-.089 1.007-.31 1.284-.501.214-.147.636-.559 3.066-2.991l2.621-2.604c.025 0 2.506-2.481 2.506-2.509s2.437-2.449 2.468-2.449c.015 0 .094-.07.175-.157.694-.735 1.013-1.422 1.064-2.298.039-.643-.089-1.351-.322-1.777a3.79 3.79 0 0 0-1.461-1.521c-.417-.242-.761-.346-1.319-.401-.455-.046-1.022 0-1.408.111-.361.104-.896.407-1.267.715-.062.052-1.9 1.879-4.083 4.061l-3.968 3.967-1.624-1.619-1.716-1.697c-.571-.447-1.264-.712-1.988-.758-.6-.019-1.352.134-1.818.371a4.3 4.3 0 0 0-.979.782c-.16.178-.426.53-.431.572s-.013.065-.097.238c-.202.423-.315.883-.333 1.352a2.99 2.99 0 0 0 .028.73c.067.524.357 1.16.758 1.657.074.094 1.441 1.474 3.037 3.067l3.081 3.029c.486.357 1.015.577 1.636.678.27.045.743.024 1.091-.045z" stroke="#fff" stroke-width="2.25"/></svg>
